X: 19351
T: Jack Robinson
R: polka
M: 2/4
K: Gmajor
|E|:D2G2 D2BB|c2c2 A4|FGA2 FGA2|GBd^c d4|
edce d2B2|cBAB A2G2|D2G2 FGAB|1 A2G2G4:|2 A2G2 G2||
|:Bc|d2B2 cde2|e2A2 A2 Bc|d2B2 cde2|edcB AcBA|
GABc d2B2|cBAB A2G2|D2G2 FGAB|1 A2G2 G2:|2 A2G2 G4||

